X:1680
T:Wabazi Heaven
M:C|
L:1/8
C:John McCusker
R:reel
D:John McCusker: Goodnight Ginger
Z:Devin McCabe
K:EMin
FGGE A2GE|F~G3 BAAG|FGGA cB B/2B/2B|BA A/2A/2A AGGE|
!FGGE A2GE|F~G3 BAAG|FGGA dc c/2c/2c|1cB B/2B/2B BAAG:|2cB B/2B/2B BAAB|
|
!c2 A/2B/2c BAGF|E~C3 DFAc|cBAc BA B/2c/2d|edcB cBAB|
!c2 A/2B/2c BAGE|F~B3 BAGF|E3C D3E|FGAB dccB|
!c2 A/2B/2c BAGF|E~C3 DFAc|cBAc BA B/2c/2d|edcB cBAB|
!c2 A/2B/2c BAGE|F~B3 BAGF|E3C A,B,CD|E~A,3 =FD D/2D/2D||
